X: 1
T: Gan Ainm
M: 4/4
L: 1/8
R: reel
K: Amaj
eaga eaga | eaga f2d2 | [1 dfff dfff | dfaf f2e2 :|| [2 defg aedB | B2A2 A4 ||
ceee ceee | ceee fedc | [1 dfff dfff | dfaf f2e2 :|| [2 defg aedB | B2A2 A4 ||
